X:1
T:Hor ch'i fior
T:Hor ch'i fior
T:Giovanni Maria Artusi
T:Source : Canzonette a 4 voci---Libro primo---Venetia---G.Vincenti---1598. Editor : André Vierendeels (26/02/14). 
T:Note : Original clefs : G2, G2, C2, C4 
C:Giovanni Maria Artusi
%%score [ 1 2 3 4 ]
L:1/8
Q:1/4=74
M:4/4
K:C
V:1 treble nm="C 1                   1" snm="C 1"
V:2 treble nm="C 2             2" snm="C 2"
V:3 treble nm="Alto" snm="A"
V:4 bass nm="Basso" snm="B"
V:1
 z8 | g6 c2 | ed ef g2 e2- | e2 d2 cB cd | e4 c4 | B2 c4 B2 | c2 e3 e e2 | c2 e2 d4 | e8 | g6 c2 | %10
w: |Hor ch'il|fior, _ _ _ _ hor|_ ch'i fior _ _ _|_ o-|do- ra- *|ti, de- stan' i|col- li'ei pra-|ti,|hor ch'i|
 ed ef g4- | g2 c3 d ef | g4 e4 | e4 f3 e | d2 c2 d4 | e2 c3 c c2 | cc c4 B2 | c2 g2 g4 | e6 d2 | %19
w: fior, _ _ _ _|_ hor _ _ _|_ ch'i|fior' o- *|* do- ra-|ti, de- sta- n'i|col- li'ei pra- *|ti, le fie-|re, le|
 c8 | B4 c4 | AB cd e3 f | g6 g2 | ^f2 g4 f2 | g4 e4 | f3 e/d/ c2 G2 | B2 c2 d4 | e8 | z2 g2 g4 | %29
w: fie-|re'al- pe-|str' _ _ _ _ _|_ er-|ran- * *|ti, di-|ven- * * * gon|tut- te'a- ma-|ti,|le fie-|
 e8 | z2 e2 e4 | f4 e2 c2 | d8- | d8 | d4 c4 | c3 B e2 e2 | d2 c4 B2 | c8 |] %38
w: re,|le fier'|al- pe- str'er-|ran-||ti, di-|ven- gon tutt' a-|man- * *|ti.|
V:2
 g6 c2 | ed ef g4- | g2 c3 d ef | g4 e4 | e4 f3 e | d2 c2 d4 | e2 c3 c c2 | cc c4 B2 | c8 | z8 | %10
w: Hor ch'il|fior, _ _ _ _|_ hor _ _ _|_ ch'i|fior o- *|* do- ra-|t, de- sten' i|col- li'ei pra- *|ti,||
 g6 c2 | ed ef g2 e2- | e2 d2 cB cd | e4 c4 | B2 c4 B2 | c2 e3 e e2 | c2 e2 d4 | e8 | z2 g2 g4 | %19
w: hor ch'i|fior _ _ _ _ hor|_ ch'i fior _ _ _|_ o-|do- ra- *|ti, de stan' i|col- li'ei pra-|ti,|le fie-|
 e8 | z2 e2 e4 | f4 e2 c2 | d8- | d8 | d4 c4 | c3 B e2 e2 | d2 c4 B2 | c2 g2 g4 | e6 d2 | c8 | %30
w: re,|le fie-|re'al- pe- str'er-|ra-||ti, di-|ven- gon tut- te'a-|man- * *|ti, le fie-|re, le|fie-|
 B4 c4 | AB cd e3 f | g6 g2 | ^f2 g4 f2 | g4 e4 | f3 e/d/ c2 G2 | B2 c2 d4 | e8 |] %38
w: re'al- pe-|str'er- * * * * *||ran- * *|ti, di-|ven- * * * gon|tut- te'a- man-|ti.|
V:3
 z8 | z8 | z4 z2 c2- | c2 G2 AG AB | c4 F2 F2 | G8 | E2 E2 A2 G2 | A2 G2 G4 | G8 | z8 | z8 | %11
w: ||Hor|_ ch'i fior _ _ _|_ o- do-|ra-|ti, de- stan' i|col- li'ei pra-|ti,|||
 z4 z2 c2- | c2 G2 AG AB | c4 F2 F2 | G8 | E2 E2 A2 G2 | A2 G2 G4 | G8 | z2 c2 B4 | A6 A2 | %20
w: hor|_ ch'i fior _ _ _|_ o- do-|ra-|ti, de stan' i|cil- li'ei pra-|ti.|le fie-|re, le|
 ^G4 A4 | A4 G2 A2 | B6 AG | A2 G2 A4 | B4 G4 | A2 G2 E2 E2 | G8 | G8 | z2 c2 B4 | A6 A2 | ^G4 A4 | %31
w: fie- re'al-|pe- str'er- ran-|||ti, di-|ven- gon tut- te'a-|man-|ti,|le fie-|re, le|fie- re'al|
 A4 G2 A2 | B6 AG | A2 G2 A4 | B4 G4 | A3 G E2 E2 | G8 | G8 |] %38
w: pe- str'er- ran-|||ti, di-|ven- gon tutt' a-|man-|ti.|
V:4
 z8 | z8 | z8 | z8 | z8 | z8 | A,4 A,2 E,2 | F,2 C,2 G,4 | C,8 | z8 | z8 | z8 | z8 | z8 | z8 | %15
w: ||||||De- stan' i|col- li'ei pra-|ti,|||||||
 A,4 A,2 E,2 | F,2 C,2 G,4 | C,6 C2 | C4 G,4 | z2 A,2 A,4 | E,4 A,4 | F,G,A,B, C2 A,2 | G,6 F,E, | %23
w: de stan' i|col- li'ei pra-|ti, le|fie- re,|le fie-|re'al- pe-|str'er- * * * * *|ran- * *|
 D,8 | G,4 C4 | F,3 G, A,2 C2 | G,8 | C,6 C2 | C4 G,4 | z2 A,2 A,4 | E,4 A,4 | F,G,A,B, C2 A,2 | %32
w: |ti, di-|ven- gon tut- te'a-|man-|ti, le|fie- re,|le fie-|re'al- pe-|str'er- * * * * *|
 G,6 F,E, | D,8 | G,4 C4 | F,3 G, A,2 C2 | G,8 | C,8 |] %38
w: ran- * *||ti, di|ven- gon tutt' a-|man-|ti.|

